src/img/channel/channel_84.svg

<svg fill="none" height="100" viewBox="0 0 134 100" width="134" xmlns="http://www.w3.org/2000/svg"><path clip-rule="evenodd" d="m0 .0000072h133.333v99.9999928h-133.333z" fill="#c02519" fill-rule="evenodd"/><g fill="#fff"><path d="m42.2349 66.17h2.6635v19.5785h-2.4111l-13.0905-15.0793v15.0793h-2.6341v-19.5785h2.2698l13.2024 15.2063z"/><path d="m49.9502 66.1699h11.1v2.4937h-8.2968v5.9706h8.0166v2.5087h-8.0166v6.0834h8.5627v2.4944h-11.3659z"/><path d="m90.9657 66.1698h2.7953l-7.9167 19.6635h-.6159l-6.4016-15.9223-6.4682 15.9223h-.6016l-7.8913-19.6635h2.8238l5.3953 13.496 5.4325-13.496h2.65l5.4572 13.496z"/><path d="m101.356 77.5452-2.1298-1.2945c-1.3365-.8158-2.2873-1.6182-2.8524-2.4079s-.8484-1.6984-.8484-2.7262c0-1.542.5349-2.7936 1.6056-3.7555 1.069-.9627 2.4595-1.4445 4.17-1.4445 1.634 0 3.134.4595 4.499 1.377v3.1817c-1.411-1.3571-2.93-2.0357-4.556-2.0357-.915 0-1.6678.2119-2.2567.6357-.5881.4231-.8833.9651-.8833 1.6262 0 .5857.2174 1.1358.6508 1.6469.4341.5127 1.1309 1.05 2.0922 1.6119l2.141 1.2674c2.388 1.427 3.582 3.2429 3.582 5.4476 0 1.5699-.526 2.8453-1.576 3.8262-1.052.981-2.419 1.4707-4.1 1.4707-1.9337 0-3.6948-.5929-5.2837-1.7826v-3.5603c1.5127 1.9183 3.2651 2.877 5.2557 2.877.878 0 1.609-.2445 2.194-.7333.584-.4889.876-1.1008.876-1.8365 0-1.1913-.861-2.3215-2.58-3.3913z"/><path d="m41.057 39.4969h2.7961l-7.9159 19.6635h-.6167l-6.4016-15.9206-6.4682 15.9206h-.6016l-7.8921-19.6635h2.8254l5.3953 13.4976 5.4317-13.4976h2.65l5.4572 13.4976z"/><path d="m54.8841 41.8801c-2.2413 0-4.0825.7008-5.5246 2.1016-1.4428 1.4024-2.1635 3.1921-2.1635 5.3683 0 2.1119.7238 3.869 2.1706 5.2706 1.4469 1.4008 3.258 2.1016 5.4334 2.1016 2.1833 0 4.0063-.7151 5.4682-2.1445 1.4604-1.4293 2.1905-3.2095 2.1905-5.3396 0-2.0746-.7301-3.8191-2.1905-5.2349-1.4619-1.4159-3.2563-2.1231-5.3841-2.1231zm-.1127-2.6634c3.0254 0 5.5445.9579 7.5564 2.8738 2.0119 1.915 3.019 4.3166 3.019 7.2031 0 2.8881-1.0159 5.277-3.0468 7.1699-2.031 1.8912-4.5913 2.8373-7.6833 2.8373-2.9493 0-5.408-.9461-7.3731-2.8373-1.9658-1.8929-2.9492-4.2635-2.9492-7.1135 0-2.9246.9897-5.3445 2.9691-7.2595 1.9801-1.9159 4.4825-2.8738 7.5079-2.8738z"/><path d="m72.235 41.8801h-.8405v6.1809h1.0651c1.4198 0 2.3936-.1214 2.9222-.365.5278-.2421.9389-.6096 1.2333-1.0993.2945-.4904.4413-1.0492.4413-1.6761 0-.6159-.1635-1.1738-.4905-1.6746-.327-.5-.7873-.8524-1.3801-1.0572-.5937-.2063-1.5778-.3087-2.9508-.3087zm-3.6437 17.1968v-19.5801h4.9048c1.9809 0 3.5539.4904 4.7166 1.4714 1.1635.9817 1.7445 2.3079 1.7445 3.9809 0 1.1405-.2841 2.1262-.854 2.958-.5706.8309-1.3881 1.4532-2.4532 1.8635.6262.4119 1.2381.9722 1.8357 1.6825.5985.7095 1.4389 1.9468 2.5231 3.7127.6825 1.1127 1.2293 1.9492 1.6397 2.5087l1.0373 1.4024h-3.3358l-.8539-1.2897c-.0286-.0468-.0842-.127-.1683-.2389l-.5452-.7714-.8683-1.4301-.9381-1.5286c-.5777-.804-1.1079-1.4437-1.5897-1.9199-.4817-.4754-.9174-.8182-1.3047-1.0285-.3889-.2088-1.0413-.3143-1.9579-.3143h-.7294v8.5214z"/><path d="m86.4189 39.4968h2.8032v17.0293h8.8151v2.5508h-11.6183z"/><path d="m107.687 41.992h-3.504v14.5619h3.587c1.402 0 2.49-.0952 3.267-.2873.774-.1913 1.421-.4349 1.941-.7286.517-.2952.992-.6563 1.421-1.0865 1.383-1.4016 2.075-3.1714 2.075-5.3119 0-2.1024-.71-3.8167-2.13-5.1428-.523-.4953-1.124-.9024-1.801-1.2199-.679-.3174-1.321-.5278-1.928-.6309-.607-.1024-1.583-.154-2.928-.154zm-6.308 17.0563v-19.5515h6.601c2.664 0 4.77.4 6.322 1.1992 1.551.7984 2.784 1.973 3.7 3.5246.915 1.5508 1.373 3.242 1.373 5.073 0 1.3087-.252 2.5603-.757 3.7563-.504 1.1969-1.224 2.2477-2.158 3.1532-.953.9357-2.061 1.6405-3.322 2.1167-.738.2897-1.415.4833-2.032.5817s-1.794.1468-3.531.1468z"/><path d="m69.2454 24.4841c-.0016.419-.1302.8413-.5048 1.169-.3738.3286-1.0206.5786-2.0921.5786h-2.1563v-3.4579h2.0603c.9611 0 1.6429.1952 2.0706.4992.4262.3063.6191.7087.6223 1.2111z"/><path d="m67.4985 20.3438c.4016-.2889.5953-.6984.5976-1.3119-.0015-.4215-.1222-.7826-.4253-1.0516-.304-.2699-.8199-.4611-1.6532-.4611h-1.5254v3.2769h1.0468c.9064 0 1.5556-.1611 1.9595-.4523z"/><path d="m71.5714 24.7381c.0055-1.5984-1.0588-2.8135-2.7627-3.2801.4603-.235.8238-.5223 1.0904-.8723.3556-.4698.5262-1.0452.5238-1.7166.0024-.8238-.3222-1.6643-1.0182-2.2937-.6968-.6286-1.754-1.0357-3.1968-1.0349h-3.985v12.6714h4.6746.0024c1.6683 0 2.8397-.4524 3.5937-1.123.7547-.6675 1.0786-1.5436 1.0778-2.3508zm4.442 5.9294h-18.696v-17.5937h18.696z"/><path d="m45.9562 20.3438c.4008-.2889.5953-.6984.5985-1.3119-.0008-.4215-.1223-.7826-.4254-1.0516-.3048-.2699-.8207-.4611-1.6548-.4611h-1.5238v3.2769h1.0468c.9056 0 1.5548-.1611 1.9587-.4523z"/><path d="m47.0809 23.273c-.427-.304-1.1096-.4992-2.0699-.4992h-2.0603v3.4579h2.1563c1.0715 0 1.7167-.25 2.0913-.5786.3746-.3277.504-.75.5048-1.169-.0032-.5024-.1961-.9048-.6222-1.2111z"/><path d="m50.03 24.7381c.0056-1.5984-1.0603-2.8135-2.7619-3.2801.4588-.235.8223-.5223 1.0881-.8723.3572-.4698.5262-1.0452.5254-1.7166.0008-.8238-.323-1.6643-1.019-2.2937-.6961-.6286-1.7532-1.0357-3.1961-1.0349h-3.9857v12.6714h4.6738.0032c1.6691 0 2.8397-.4524 3.5937-1.123.7539-.6675 1.0801-1.5436 1.0785-2.3508zm4.4421 5.9294h-18.6952v-17.5937h18.6952z"/><path d="m93.8429 24.8199-.3.1833c-1.4476.8841-3.0222 1.3579-4.4524 1.3571-3.0619-.0119-5.0778-1.8262-5.0857-4.4658.0032-2.5834 2.1087-4.4953 5.0079-4.5016 1.477.0008 2.8143.3825 4.404 1.2539l.2921.1604v-2.358l-.1254-.0492c-1.7921-.7071-3.1802-1.0222-4.5508-1.0214-2.1199-.0008-3.9587.6992-5.2691 1.8865-1.3095 1.1881-2.0881 2.8651-2.0865 4.7913.0008 1.342.554 2.9142 1.7397 4.1627 1.1817 1.2484 3.0032 2.1579 5.5008 2.1571h.0087c2.0715 0 3.508-.4611 4.8064-1.1016l.1103-.054zm3.7127 5.8476h-18.6952v-17.5937h18.6952z"/></g></svg>

<svg width="134" height="100" viewBox="0 0 134 100" fill="none" xmlns="http://www.w3.org/2000/svg">
<path fill-rule="evenodd" clip-rule="evenodd" d="M0 7.19731e-06H133.333V100H0V7.19731e-06Z" fill="#C02519"/>
<path d="M42.2349 66.17H44.8984V85.7485H42.4873L29.3968 70.6692V85.7485H26.7627V66.17H29.0325L42.2349 81.3763V66.17Z" fill="white"/>
<path d="M49.9502 66.1699H61.0502V68.6636H52.7534V74.6342H60.77V77.1429H52.7534V83.2263H61.3161V85.7207H49.9502V66.1699Z" fill="white"/>
<path d="M90.9657 66.1698H93.761L85.8443 85.8333H85.2284L78.8268 69.911L72.3586 85.8333H71.757L63.8657 66.1698H66.6895L72.0848 79.6658L77.5173 66.1698H80.1673L85.6245 79.6658L90.9657 66.1698Z" fill="white"/>
<path d="M101.356 77.5452L99.2262 76.2507C97.8897 75.4349 96.9389 74.6325 96.3738 73.8428C95.8087 73.0531 95.5254 72.1444 95.5254 71.1166C95.5254 69.5746 96.0603 68.323 97.131 67.3611C98.2 66.3984 99.5905 65.9166 101.301 65.9166C102.935 65.9166 104.435 66.3761 105.8 67.2936V70.4753C104.389 69.1182 102.87 68.4396 101.244 68.4396C100.329 68.4396 99.5762 68.6515 98.9873 69.0753C98.3992 69.4984 98.104 70.0404 98.104 70.7015C98.104 71.2872 98.3214 71.8373 98.7548 72.3484C99.1889 72.8611 99.8857 73.3984 100.847 73.9603L102.988 75.2277C105.376 76.6547 106.57 78.4706 106.57 80.6753C106.57 82.2452 106.044 83.5206 104.994 84.5015C103.942 85.4825 102.575 85.9722 100.894 85.9722C98.9603 85.9722 97.1992 85.3793 95.6103 84.1896V80.6293C97.123 82.5476 98.8754 83.5063 100.866 83.5063C101.744 83.5063 102.475 83.2618 103.06 82.773C103.644 82.2841 103.936 81.6722 103.936 80.9365C103.936 79.7452 103.075 78.615 101.356 77.5452Z" fill="white"/>
<path d="M41.057 39.4969H43.8531L35.9372 59.1604H35.3205L28.9189 43.2398L22.4507 59.1604H21.8491L13.957 39.4969H16.7824L22.1777 52.9945L27.6094 39.4969H30.2594L35.7166 52.9945L41.057 39.4969Z" fill="white"/>
<path d="M54.8841 41.8801C52.6428 41.8801 50.8016 42.5809 49.3595 43.9817C47.9167 45.3841 47.196 47.1738 47.196 49.35C47.196 51.4619 47.9198 53.219 49.3666 54.6206C50.8135 56.0214 52.6246 56.7222 54.8 56.7222C56.9833 56.7222 58.8063 56.0071 60.2682 54.5777C61.7286 53.1484 62.4587 51.3682 62.4587 49.2381C62.4587 47.1635 61.7286 45.419 60.2682 44.0032C58.8063 42.5873 57.0119 41.8801 54.8841 41.8801ZM54.7714 39.2167C57.7968 39.2167 60.3159 40.1746 62.3278 42.0905C64.3397 44.0055 65.3468 46.4071 65.3468 49.2936C65.3468 52.1817 64.3309 54.5706 62.3 56.4635C60.269 58.3547 57.7087 59.3008 54.6167 59.3008C51.6674 59.3008 49.2087 58.3547 47.2436 56.4635C45.2778 54.5706 44.2944 52.2 44.2944 49.35C44.2944 46.4254 45.2841 44.0055 47.2635 42.0905C49.2436 40.1746 51.746 39.2167 54.7714 39.2167Z" fill="white"/>
<path d="M72.235 41.8801H71.3945V48.061H72.4596C73.8794 48.061 74.8532 47.9396 75.3818 47.696C75.9096 47.4539 76.3207 47.0864 76.6151 46.5967C76.9096 46.1063 77.0564 45.5475 77.0564 44.9206C77.0564 44.3047 76.8929 43.7468 76.5659 43.246C76.2389 42.746 75.7786 42.3936 75.1858 42.1888C74.5921 41.9825 73.608 41.8801 72.235 41.8801ZM68.5913 59.0769V39.4968H73.4961C75.477 39.4968 77.05 39.9872 78.2127 40.9682C79.3762 41.9499 79.9572 43.2761 79.9572 44.9491C79.9572 46.0896 79.6731 47.0753 79.1032 47.9071C78.5326 48.738 77.7151 49.3603 76.65 49.7706C77.2762 50.1825 77.8881 50.7428 78.4857 51.4531C79.0842 52.1626 79.9246 53.3999 81.0088 55.1658C81.6913 56.2785 82.2381 57.115 82.6485 57.6745L83.6858 59.0769H80.35L79.4961 57.7872C79.4675 57.7404 79.4119 57.6602 79.3278 57.5483L78.7826 56.7769L77.9143 55.3468L76.9762 53.8182C76.3985 53.0142 75.8683 52.3745 75.3865 51.8983C74.9048 51.4229 74.4691 51.0801 74.0818 50.8698C73.6929 50.661 73.0405 50.5555 72.1239 50.5555H71.3945V59.0769H68.5913Z" fill="white"/>
<path d="M86.4189 39.4968H89.2221V56.5261H98.0372V59.0769H86.4189V39.4968Z" fill="white"/>
<path d="M107.687 41.992H104.183V56.5539H107.77C109.172 56.5539 110.26 56.4587 111.037 56.2666C111.811 56.0753 112.458 55.8317 112.978 55.538C113.495 55.2428 113.97 54.8817 114.399 54.4515C115.782 53.0499 116.474 51.2801 116.474 49.1396C116.474 47.0372 115.764 45.3229 114.344 43.9968C113.821 43.5015 113.22 43.0944 112.543 42.7769C111.864 42.4595 111.222 42.2491 110.615 42.146C110.008 42.0436 109.032 41.992 107.687 41.992ZM101.379 59.0483V39.4968H107.98C110.644 39.4968 112.75 39.8968 114.302 40.696C115.853 41.4944 117.086 42.669 118.002 44.2206C118.917 45.7714 119.375 47.4626 119.375 49.2936C119.375 50.6023 119.123 51.8539 118.618 53.0499C118.114 54.2468 117.394 55.2976 116.46 56.2031C115.507 57.1388 114.399 57.8436 113.138 58.3198C112.4 58.6095 111.723 58.8031 111.106 58.9015C110.489 58.9999 109.312 59.0483 107.575 59.0483H101.379Z" fill="white"/>
<path d="M69.2454 24.4841C69.2438 24.9031 69.1152 25.3254 68.7406 25.6531C68.3668 25.9817 67.72 26.2317 66.6485 26.2317H64.4922V22.7738H66.5525C67.5136 22.7738 68.1954 22.969 68.6231 23.273C69.0493 23.5793 69.2422 23.9817 69.2454 24.4841Z" fill="white"/>
<path d="M67.4985 20.3438C67.9001 20.0549 68.0938 19.6454 68.0961 19.0319C68.0946 18.6104 67.9739 18.2493 67.6708 17.9803C67.3668 17.7104 66.8509 17.5192 66.0176 17.5192H64.4922V20.7961H65.539C66.4454 20.7961 67.0946 20.635 67.4985 20.3438Z" fill="white"/>
<path d="M71.5714 24.7381C71.5769 23.1397 70.5126 21.9246 68.8087 21.458C69.269 21.223 69.6325 20.9357 69.8991 20.5857C70.2547 20.1159 70.4253 19.5405 70.4229 18.8691C70.4253 18.0453 70.1007 17.2048 69.4047 16.5754C68.7079 15.9468 67.6507 15.5397 66.2079 15.5405H62.2229V28.2119H66.8975H66.8999C68.5682 28.2119 69.7396 27.7595 70.4936 27.0889C71.2483 26.4214 71.5722 25.5453 71.5714 24.7381ZM76.0134 30.6675H57.3174V13.0738H76.0134V30.6675Z" fill="white"/>
<path d="M45.9562 20.3438C46.357 20.0549 46.5515 19.6454 46.5547 19.0319C46.5539 18.6104 46.4324 18.2493 46.1293 17.9803C45.8245 17.7104 45.3086 17.5192 44.4745 17.5192H42.9507V20.7961H43.9975C44.9031 20.7961 45.5523 20.635 45.9562 20.3438Z" fill="white"/>
<path d="M47.0809 23.273C46.6539 22.969 45.9713 22.7738 45.011 22.7738H42.9507V26.2317H45.107C46.1785 26.2317 46.8237 25.9817 47.1983 25.6531C47.5729 25.3254 47.7023 24.9031 47.7031 24.4841C47.6999 23.9817 47.507 23.5793 47.0809 23.273Z" fill="white"/>
<path d="M50.03 24.7381C50.0356 23.1397 48.9697 21.9246 47.2681 21.458C47.7269 21.223 48.0904 20.9357 48.3562 20.5857C48.7134 20.1159 48.8824 19.5405 48.8816 18.8691C48.8824 18.0453 48.5586 17.2048 47.8626 16.5754C47.1665 15.9468 46.1094 15.5397 44.6665 15.5405H40.6808V28.2119H45.3546H45.3578C47.0269 28.2119 48.1975 27.7595 48.9515 27.0889C49.7054 26.4214 50.0316 25.5453 50.03 24.7381ZM54.4721 30.6675H35.7769V13.0738H54.4721V30.6675Z" fill="white"/>
<path d="M93.8429 24.8199L93.5429 25.0032C92.0953 25.8873 90.5207 26.3611 89.0905 26.3603C86.0286 26.3484 84.0127 24.5341 84.0048 21.8945C84.008 19.3111 86.1135 17.3992 89.0127 17.3929C90.4897 17.3937 91.827 17.7754 93.4167 18.6468L93.7088 18.8072V16.4492L93.5834 16.4C91.7913 15.6929 90.4032 15.3778 89.0326 15.3786C86.9127 15.3778 85.0739 16.0778 83.7635 17.2651C82.454 18.4532 81.6754 20.1302 81.677 22.0564C81.6778 23.3984 82.231 24.9706 83.4167 26.2191C84.5984 27.4675 86.4199 28.377 88.9175 28.3762H88.9262C90.9977 28.3762 92.4342 27.9151 93.7326 27.2746L93.8429 27.2206V24.8199ZM97.5556 30.6675H78.8604V13.0738H97.5556V30.6675Z" fill="white"/>
</svg>
